icon/ir/short-pants.svg

<svg stroke-width="1.5" viewBox="0 0 24 24" fill="none" xmlns="http://www.w3.org/2000/svg" height="1em" width="1em">
  <path d="M3.06014 5.65487C3.02786 5.30331 3.30459 5 3.65763 5H20.3424C20.6954 5 20.9721 5.30331 20.9399 5.65487L19.7643 18.4549C19.736 18.7637 19.477 19 19.1669 19H15.0152C14.7515 19 14.5187 18.8278 14.4415 18.5756L12.5737 12.4742C12.4005 11.9083 11.5995 11.9083 11.4263 12.4742L9.55848 18.5756C9.48129 18.8278 9.24848 19 8.98476 19H4.83314C4.52303 19 4.26401 18.7637 4.23565 18.4549L3.64286 12L3.06014 5.65487Z" stroke="currentColor" stroke-width="1.5"/>
  <path d="M4 9.5H5.5C6.60457 9.5 7.5 8.60457 7.5 7.5V5" stroke="currentColor" stroke-width="1.5"/>
  <path d="M20.5 9.5H18.5C17.3954 9.5 16.5 8.60457 16.5 7.5V5" stroke="currentColor" stroke-width="1.5"/>
</svg>

<svg width="24" height="24" stroke-width="1.5" fill="none" xmlns="http://www.w3.org/2000/svg"><path d="M3.06 5.655A.6.6 0 0 1 3.658 5h16.684a.6.6 0 0 1 .598.655l-1.176 12.8a.6.6 0 0 1-.597.545h-4.152a.6.6 0 0 1-.574-.424l-1.867-6.102c-.174-.566-.974-.566-1.148 0l-1.868 6.102a.6.6 0 0 1-.573.424H4.833a.6.6 0 0 1-.597-.545L3.643 12 3.06 5.655Z" stroke="currentColor"/><path d="M4 9.5h1.5a2 2 0 0 0 2-2V5M20.5 9.5h-2a2 2 0 0 1-2-2V5" stroke="currentColor"/></svg>
